icons-dark/actions/24/view-bank-account.svg

<?xml version="1.0" encoding="UTF-8" standalone="no"?>
<!-- Created with Inkscape (http://www.inkscape.org/) -->

<svg
   xmlns:dc="http://purl.org/dc/elements/1.1/"
   xmlns:cc="http://creativecommons.org/ns#"
   xmlns:rdf="http://www.w3.org/1999/02/22-rdf-syntax-ns#"
   xmlns:svg="http://www.w3.org/2000/svg"
   xmlns="http://www.w3.org/2000/svg"
   xmlns:sodipodi="http://sodipodi.sourceforge.net/DTD/sodipodi-0.dtd"
   xmlns:inkscape="http://www.inkscape.org/namespaces/inkscape"
   width="24"
   height="24"
   id="svg3869"
   version="1.1"
   inkscape:version="0.91 r13725"
   sodipodi:docname="view-bank-account.svg">
  <defs
     id="defs3871">
    <linearGradient
       id="linearGradient4290-48">
      <stop
         id="stop4292-0"
         offset="0"
         style="stop-color:#a5a5a5;stop-opacity:1;" />
      <stop
         id="stop4294-0"
         offset="1"
         style="stop-color:#f5f2f5;stop-opacity:1;" />
    </linearGradient>
    <inkscape:perspective
       id="perspective4146-9"
       inkscape:persp3d-origin="12 : 8 : 1"
       inkscape:vp_z="24 : 12 : 1"
       inkscape:vp_y="0 : 1000 : 0"
       inkscape:vp_x="0 : 12 : 1"
       sodipodi:type="inkscape:persp3d" />
    <inkscape:perspective
       id="perspective4146"
       inkscape:persp3d-origin="12 : 8 : 1"
       inkscape:vp_z="24 : 12 : 1"
       inkscape:vp_y="0 : 1000 : 0"
       inkscape:vp_x="0 : 12 : 1"
       sodipodi:type="inkscape:persp3d" />
    <inkscape:perspective
       sodipodi:type="inkscape:persp3d"
       inkscape:vp_x="0 : 12 : 1"
       inkscape:vp_y="0 : 1000 : 0"
       inkscape:vp_z="24 : 12 : 1"
       inkscape:persp3d-origin="12 : 8 : 1"
       id="perspective4146-9-1" />
    <inkscape:perspective
       sodipodi:type="inkscape:persp3d"
       inkscape:vp_x="0 : 12 : 1"
       inkscape:vp_y="0 : 1000 : 0"
       inkscape:vp_z="24 : 12 : 1"
       inkscape:persp3d-origin="12 : 8 : 1"
       id="perspective4146-96" />
  </defs>
  <sodipodi:namedview
     id="base"
     pagecolor="#ffffff"
     bordercolor="#666666"
     borderopacity="1.0"
     inkscape:pageopacity="0.0"
     inkscape:pageshadow="2"
     inkscape:zoom="22.627416"
     inkscape:cx="5.4926209"
     inkscape:cy="10.264796"
     inkscape:document-units="px"
     inkscape:current-layer="layer1"
     showgrid="true"
     fit-margin-top="0"
     fit-margin-left="0"
     fit-margin-right="0"
     fit-margin-bottom="0"
     inkscape:window-width="1366"
     inkscape:window-height="709"
     inkscape:window-x="-4"
     inkscape:window-y="0"
     inkscape:window-maximized="1"
     inkscape:showpageshadow="false"
     inkscape:snap-bbox="true"
     inkscape:object-nodes="true">
    <inkscape:grid
       type="xygrid"
       id="grid4132" />
    <sodipodi:guide
       position="4,18"
       orientation="18,0"
       id="guide4138" />
    <sodipodi:guide
       position="5,3"
       orientation="0,18"
       id="guide4140" />
    <sodipodi:guide
       position="20,2.0000174"
       orientation="-18,0"
       id="guide4142" />
    <sodipodi:guide
       position="2,21"
       orientation="0,-18"
       id="guide4144" />
    <sodipodi:guide
       position="3,19.000017"
       orientation="16,0"
       id="guide4146" />
    <sodipodi:guide
       position="2,4"
       orientation="0,16"
       id="guide4148" />
    <sodipodi:guide
       position="21,20"
       orientation="-16,0"
       id="guide4150" />
    <sodipodi:guide
       position="2,20"
       orientation="0,-16"
       id="guide4152" />
  </sodipodi:namedview>
  <metadata
     id="metadata3874">
    <rdf:RDF>
      <cc:Work
         rdf:about="">
        <dc:format>image/svg+xml</dc:format>
        <dc:type
           rdf:resource="http://purl.org/dc/dcmitype/StillImage" />
        <dc:title></dc:title>
      </cc:Work>
    </rdf:RDF>
  </metadata>
  <g
     inkscape:label="Capa 1"
     inkscape:groupmode="layer"
     id="layer1"
     transform="translate(-326,-532.3622)">
    <g
       transform="translate(-94.71429,7.57146)"
       id="layer1-5"
       inkscape:label="Capa 1">
      <path
         id="rect4089"
         transform="translate(421.71429,525.79074)"
         d="m 3,3 0,2 0,1 0,13 7,0 0,-1 -6,0 0,-11 14,0 0,5 1,0 0,-9 -2,0 0,2 -2,0 0,-2 -3,0 0,2 L 10,5 10,3 7,3 7,5 5,5 5,3 3,3 Z m 2,5 0,1 6,0 0,-1 -6,0 z m 0,3 0,1 6,0 0,-1 -6,0 z m 6,2 0,6 8,0 0,-6 -8,0 z m 1,1 6,0 0,1 -1,0 0,2 1,0 0,1 -6,0 0,-1 1,0 0,-2 -1,0 0,-1 z m 3,1 c -0.554,0 -1,0.446 -1,1 0,0.554 0.446,1 1,1 0.554,0 1,-0.446 1,-1 0,-0.554 -0.446,-1 -1,-1 z"
         style="fill:#f2f2f2;fill-opacity:1;stroke:none"
         inkscape:connector-curvature="0" />
      <rect
         y="533.79071"
         x="433.71429"
         height="1"
         width="5"
         id="rect4204"
         style="opacity:1;fill:#da4453;fill-opacity:1;stroke:none;stroke-width:0.1;stroke-miterlimit:4;stroke-dasharray:none;stroke-opacity:1" />
    </g>
  </g>
</svg>

<svg xmlns="http://www.w3.org/2000/svg" viewBox="0 0 24 24">
  <defs id="defs3051">
    <style type="text/css" id="current-color-scheme">
      .ColorScheme-Text {
        color:#f2f2f2
      }
      </style>
  </defs>
  <a transform="translate(1,1)">
 <path 
     style="fill:currentColor;fill-opacity:1;stroke:none" 
     d="M 3 3 L 3 5 L 3 6 L 3 19 L 10 19 L 10 18 L 4 18 L 4 7 L 18 7 L 18 12 L 19 12 L 19 3 L 17 3 L 17 5 L 15 5 L 15 3 L 12 3 L 12 5 L 10 5 L 10 3 L 7 3 L 7 5 L 5 5 L 5 3 L 3 3 z M 5 8 L 5 9 L 11 9 L 11 8 L 5 8 z M 5 11 L 5 12 L 11 12 L 11 11 L 5 11 z M 11 13 L 11 19 L 19 19 L 19 13 L 11 13 z M 12 14 L 18 14 L 18 15 L 17 15 L 17 17 L 18 17 L 18 18 L 12 18 L 12 17 L 13 17 L 13 15 L 12 15 L 12 14 z M 15 15 C 14.446 15 14 15.446 14 16 C 14 16.554 14.446 17 15 17 C 15.554 17 16 16.554 16 16 C 16 15.446 15.554 15 15 15 z "
     class="ColorScheme-Text"
     />
 <path 
     style="fill:#da4453;fill-opacity:1;stroke:none" 
     d="M 12 8 L 12 9 L 17 9 L 17 8 L 12 8 z "
     />
 </a>
</svg>
